X:1
T:Title
%%score { ( 1 2 ) | ( 3 4 ) }
L:1/8
Q:1/4=108
M:4/4
K:A
V:1 treble nm="Grand Piano"
V:2 treble 
V:3 bass 
V:4 bass 
V:1
 [CA]2 [CE]2 [CE]2 z E | F2 F2 F2 [CE]2 | E3 E G2 B2 | G2 FG [CA]4 | [CA]2 [CE]2 [CE]2 z E | %5
w: J.~D.~Vinton * * *|||||
 F2 F2 F2 [CE]2 | E3 E G2 B2 | G2 FG [CA]4 | c2 cB A2 E2 | d2 dc B2 E2 | c2 c2 e2 c2 | c2 B2 B4 | %12
w: |||||||
 [CA]2 [CE]2 [CE]2 z E | F2 F2 F2 [CE]2 | F2 FA E2 [CA]2 | [Ec]2 [DB]2 [CA]4 |] %16
w: ||||
V:2
 z4 z2 C2 | x8 | x8 | x8 | z4 z2 C2 | x8 | x8 | x8 | x8 | x8 | x8 | x8 | z4 z2 C2 | x8 | x8 | x8 |] %16
V:3
 [A,,E,]2 [A,,A,]2 [A,,A,]2 E,A, | [D,A,D]2 [D,A,D]2 [D,A,D]2 [A,,A,]2 | %2
 [E,G,D]3 [E,G,D] [E,B,D]2 [E,D]2 | [E,B,D]2 [E,D]2 [A,,E,]4 | [A,,E,]2 [A,,A,]2 [A,,A,]2 E,A, | %5
 [D,A,D]2 [D,A,D]2 [D,A,D]2 [A,,A,]2 | [E,G,D]3 [E,G,D] [E,B,D]2 [E,D]2 | %7
 [E,B,D]2 [E,D]2 [A,,E,]4 | z2 [A,E]2 z4 | z2 .B,2 z4 | [A,E]2 [A,E]2 [A,CE]2 [A,E]2 | %11
 [E,A,E]2 [E,G,E]2 [E,G,E]4 | z4 z2 .E,2 | [D,A,D]2 [D,A,D]2 [D,A,D]2 [A,,A,]2 | z2 .A,2 z4 | %15
 [E,A,]2 [E,G,]2 [A,,E,A,]4 |] %16
V:4
 z4 z2 A,,2 | x8 | x8 | x8 | z4 z2 A,,2 | x8 | x8 | x8 | [A,E]2 z D [A,CE]2 [A,C]2 | %9
 [E,B,E]2 [E,E]-[E,A,E] [E,G,E]2 [E,G,]2 | x8 | x8 | [A,,E,]2 [A,,A,]2 [A,,A,]2 A,,-[A,,A,] | x8 | %14
 [D,A,D]2 [D,D]-[D,F,D] [C,A,]2 [A,,A,]2 | x8 |] %16

